X:083 
T:I Have a Bonnet (polka) 
B:CRE3.068 (TÃÂÃÂÃÂÃÂ¡ BoinÃÂÃÂÃÂÃÂ©ad Agam)
F:file ID: cre.3/083i_have
R:polka
Q:120
M:2/4
L:1/8
K:G
D|:GA/B/ ce|dG B2|de/d/ cA|AG B>A|
GA/B/ ce|dG B2|de/d/ cA|AG G2:|
|:de/f/ gf/e/|dG B2|de/d/ cA|AG B2|
de/f/ gf/e/|dG B2|de/d/ cA|AG G2:|

%%%

